packages/sources/icons/src/vitamix/messenger-fill.svg

<svg width="16" height="16" viewBox="0 0 16 16" fill="none" xmlns="http://www.w3.org/2000/svg">
<path fill-rule="evenodd" clip-rule="evenodd" d="M14.6667 7.79998C14.6667 4.08465 11.756 1.33331 8 1.33331C4.24466 1.33331 1.33333 4.08465 1.33333 7.79998C1.33333 9.74465 2.12999 11.4233 3.42733 12.5826C3.53653 12.6794 3.60114 12.8168 3.60599 12.9626L3.64266 14.1493C3.64815 14.3266 3.74145 14.4896 3.89159 14.5842C4.04174 14.6787 4.22905 14.6924 4.39133 14.6206L5.71399 14.0366C5.82615 13.9873 5.95186 13.9782 6.06999 14.0106C6.69892 14.1822 7.34809 14.2683 8 14.2666C11.756 14.2666 14.6667 11.5153 14.6667 7.79998ZM4.45593 10.112C4.17526 10.3253 3.8086 9.98932 3.9966 9.69131L5.9546 6.58465C6.10354 6.34838 6.34451 6.18517 6.61917 6.13452C6.89384 6.08386 7.17717 6.15039 7.4006 6.31798L8.9586 7.48465C9.10122 7.59232 9.29797 7.59232 9.4406 7.48465L11.5439 5.88732C11.8246 5.67465 12.1913 6.01065 12.0033 6.30932L10.0453 9.41598C9.89632 9.65225 9.65535 9.81546 9.38069 9.86611C9.10602 9.91677 8.82269 9.85024 8.59926 9.68265L7.04126 8.51598C6.89863 8.40831 6.70189 8.40831 6.55926 8.51598L4.45593 10.112Z" fill="#001018"/>
</svg>

<svg width="16" height="16" fill="none" xmlns="http://www.w3.org/2000/svg"><path fill-rule="evenodd" clip-rule="evenodd" d="M14.667 7.8c0-3.715-2.911-6.467-6.667-6.467-3.755 0-6.667 2.752-6.667 6.467 0 1.945.797 3.623 2.094 4.783.11.096.174.234.179.38l.037 1.186a.534.534 0 0 0 .748.472l1.323-.584a.534.534 0 0 1 .356-.026 7.26 7.26 0 0 0 1.93.256c3.756 0 6.667-2.752 6.667-6.467zM4.456 10.112c-.28.213-.647-.123-.46-.42l1.959-3.107A1 1 0 0 1 7.4 6.318l1.558 1.167a.4.4 0 0 0 .482 0l2.103-1.598c.28-.212.647.124.46.422l-1.959 3.107a1 1 0 0 1-1.446.267L7.041 8.516a.4.4 0 0 0-.482 0l-2.103 1.596z" fill="#001018"/></svg>
